dist/assets/img/icons/Design.svg

<svg width="25" height="21" viewBox="0 0 25 21" fill="none" xmlns="http://www.w3.org/2000/svg">
<g id="Design">
<g id="Group">
<path id="Vector" d="M23.3871 0H1.6129C1.18531 0.000560118 0.775384 0.17067 0.473027 0.473027C0.17067 0.775384 0.000560118 1.18531 0 1.6129V15.3226C0.000560118 15.7502 0.17067 16.1601 0.473027 16.4625C0.775384 16.7648 1.18531 16.9349 1.6129 16.9355H9.92439L9.38659 18.5484H8.06452C7.95757 18.5484 7.85501 18.5909 7.77939 18.6665C7.70377 18.7421 7.66129 18.8447 7.66129 18.9516V19.7581H4.03226C3.92532 19.7581 3.82275 19.8005 3.74713 19.8762C3.67151 19.9518 3.62903 20.0543 3.62903 20.1613C3.62903 20.2682 3.67151 20.3708 3.74713 20.4464C3.82275 20.522 3.92532 20.5645 4.03226 20.5645H21.7742C21.8811 20.5645 21.9837 20.522 22.0593 20.4464C22.1349 20.3708 22.1774 20.2682 22.1774 20.1613C22.1774 20.0543 22.1349 19.9518 22.0593 19.8762C21.9837 19.8005 21.8811 19.7581 21.7742 19.7581H17.3387V18.9516C17.3387 18.8447 17.2962 18.7421 17.2206 18.6665C17.145 18.5909 17.0424 18.5484 16.9355 18.5484H15.6134L15.0756 16.9355H23.3871C23.8147 16.9349 24.2246 16.7648 24.527 16.4625C24.8293 16.1601 24.9994 15.7502 25 15.3226V1.6129C24.9994 1.18531 24.8293 0.775384 24.527 0.473027C24.2246 0.17067 23.8147 0.000560118 23.3871 0ZM16.5323 19.3548V19.7581H8.46774V19.3548H16.5323ZM10.2369 18.5484L10.7747 16.9355H14.2253L14.7631 18.5484H10.2369ZM24.1935 15.3226C24.1933 15.5364 24.1082 15.7413 23.957 15.8925C23.8059 16.0437 23.6009 16.1288 23.3871 16.129H1.6129C1.3991 16.1288 1.19414 16.0437 1.04297 15.8925C0.891787 15.7413 0.806732 15.5364 0.806452 15.3226V14.5161H24.1935V15.3226ZM6.8377 10.0806L6.68649 13.7097H6.21673L6.06552 10.0806H6.8377ZM6.12097 9.27419L6.39012 7.66129H6.5131L6.78226 9.27419H6.12097ZM6.45161 6.85484C6.01462 6.85484 5.64516 6.30091 5.64516 5.64516C5.64516 5.23135 6.06754 4.63004 6.4506 4.20615C6.79587 4.58921 7.25806 5.20161 7.25806 5.64516C7.25806 6.30091 6.88861 6.85484 6.45161 6.85484ZM10.8397 6.04839L10.8871 6.14365V6.45161H9.27419V6.14365L9.32157 6.04839H10.8397ZM9.7248 5.24194L10.0806 4.53075L10.4365 5.24194H9.7248ZM10.8871 7.25806V13.6593C10.8873 13.6761 10.8884 13.693 10.8906 13.7097H9.27067C9.27286 13.693 9.27404 13.6761 9.27419 13.6593V7.25806H10.8871ZM14.5161 5.64516H15.7258V6.45161H15.3226C15.2156 6.45161 15.1131 6.4941 15.0375 6.56971C14.9618 6.64533 14.9194 6.7479 14.9194 6.85484C14.9194 6.96178 14.9618 7.06434 15.0375 7.13996C15.1131 7.21558 15.2156 7.25806 15.3226 7.25806H15.7258V8.06452H14.5161C14.4092 8.06452 14.3066 8.107 14.231 8.18262C14.1554 8.25824 14.1129 8.3608 14.1129 8.46774C14.1129 8.57468 14.1554 8.67725 14.231 8.75287C14.3066 8.82849 14.4092 8.87097 14.5161 8.87097H15.7258V9.67742H15.3226C15.2156 9.67742 15.1131 9.7199 15.0375 9.79552C14.9618 9.87114 14.9194 9.9737 14.9194 10.0806C14.9194 10.1876 14.9618 10.2901 15.0375 10.3658C15.1131 10.4414 15.2156 10.4839 15.3226 10.4839H15.7258V11.2903H14.5161C14.4092 11.2903 14.3066 11.3328 14.231 11.4084C14.1554 11.484 14.1129 11.5866 14.1129 11.6935C14.1129 11.8005 14.1554 11.9031 14.231 11.9787C14.3066 12.0543 14.4092 12.0968 14.5161 12.0968H15.7258V13.7097H12.9032V4.03226H15.7258V4.83871H14.5161C14.4092 4.83871 14.3066 4.88119 14.231 4.95681C14.1554 5.03243 14.1129 5.13499 14.1129 5.24194C14.1129 5.34888 14.1554 5.45144 14.231 5.52706C14.3066 5.60268 14.4092 5.64516 14.5161 5.64516ZM19.3548 10.4839V13.6593C19.355 13.6761 19.3562 13.693 19.3584 13.7097H17.7384C17.7406 13.693 17.7418 13.6761 17.7419 13.6593V10.4839H19.3548ZM17.7419 9.67742V9.36946L18.5484 7.75655L19.3548 9.36946V9.67742H17.7419ZM24.1935 13.7097H20.1578C20.16 13.693 20.1611 13.6761 20.1613 13.6593V9.27419C20.1612 9.21159 20.1467 9.14985 20.119 9.09375L18.9093 6.6744C18.8757 6.60743 18.8242 6.55113 18.7604 6.51178C18.6967 6.47243 18.6233 6.4516 18.5484 6.4516C18.4735 6.4516 18.4001 6.47243 18.3363 6.51178C18.2726 6.55113 18.2211 6.60743 18.1875 6.6744L16.9778 9.09375C16.95 9.14985 16.9355 9.21159 16.9355 9.27419V13.6593C16.9356 13.6761 16.9368 13.693 16.939 13.7097H16.5323V3.62903C16.5323 3.52209 16.4898 3.41953 16.4142 3.34391C16.3385 3.26829 16.236 3.22581 16.129 3.22581H12.5C12.3931 3.22581 12.2905 3.26829 12.2149 3.34391C12.1393 3.41953 12.0968 3.52209 12.0968 3.62903V13.7097H11.69C11.6922 13.693 11.6934 13.6761 11.6935 13.6593V6.04839C11.6935 5.98579 11.679 5.92404 11.6512 5.86794L10.4415 3.44859C10.408 3.38163 10.3564 3.32532 10.2927 3.28598C10.229 3.24663 10.1555 3.22579 10.0806 3.22579C10.0057 3.22579 9.93232 3.24663 9.86858 3.28598C9.80485 3.32532 9.75332 3.38163 9.71976 3.44859L8.51008 5.86794C8.48229 5.92404 8.4678 5.98579 8.46774 6.04839V13.6593C8.4679 13.6761 8.46908 13.693 8.47127 13.7097H7.49345L7.66079 9.69405C7.66129 9.68498 7.66079 9.67591 7.66079 9.66633V9.65423C7.65985 9.64004 7.65817 9.62591 7.65575 9.61189V9.61089L7.28276 7.37248C7.75101 7.01915 8.06452 6.37702 8.06452 5.64516C8.06452 4.60887 6.86341 3.46119 6.72631 3.33367C6.6516 3.26442 6.55348 3.22594 6.45161 3.22594C6.34974 3.22594 6.25163 3.26442 6.17692 3.33367C6.03982 3.46119 4.83871 4.60887 4.83871 5.64516C4.83871 6.37702 5.15222 7.01915 5.62046 7.37248L5.24748 9.61089V9.61189C5.24506 9.62591 5.24337 9.64004 5.24244 9.65423V9.66633C5.24244 9.67591 5.24194 9.68498 5.24244 9.69405L5.40978 13.7097H0.806452V1.6129C0.806732 1.3991 0.891787 1.19414 1.04297 1.04297C1.19414 0.891787 1.3991 0.806732 1.6129 0.806452H23.3871C23.6009 0.806732 23.8059 0.891787 23.957 1.04297C24.1082 1.19414 24.1933 1.3991 24.1935 1.6129V13.7097Z" fill="black"/>
<path id="Vector_2" d="M4.4355 14.9193H2.01614C1.9092 14.9193 1.80664 14.9618 1.73102 15.0374C1.6554 15.113 1.61292 15.2156 1.61292 15.3225C1.61292 15.4295 1.6554 15.532 1.73102 15.6077C1.80664 15.6833 1.9092 15.7258 2.01614 15.7258H4.4355C4.54244 15.7258 4.645 15.6833 4.72062 15.6077C4.79624 15.532 4.83872 15.4295 4.83872 15.3225C4.83872 15.2156 4.79624 15.113 4.72062 15.0374C4.645 14.9618 4.54244 14.9193 4.4355 14.9193Z" fill="black"/>
<path id="Vector_3" d="M6.04839 14.9193H5.64517C5.53823 14.9193 5.43567 14.9618 5.36005 15.0374C5.28443 15.113 5.24194 15.2156 5.24194 15.3225C5.24194 15.4295 5.28443 15.532 5.36005 15.6077C5.43567 15.6833 5.53823 15.7258 5.64517 15.7258H6.04839C6.15534 15.7258 6.2579 15.6833 6.33352 15.6077C6.40914 15.532 6.45162 15.4295 6.45162 15.3225C6.45162 15.2156 6.40914 15.113 6.33352 15.0374C6.2579 14.9618 6.15534 14.9193 6.04839 14.9193Z" fill="black"/>
<path id="Vector_4" d="M10.0807 7.66125C9.97371 7.66125 9.87115 7.70374 9.79553 7.77936C9.71991 7.85498 9.67743 7.95754 9.67743 8.06448V12.5C9.67743 12.6069 9.71991 12.7095 9.79553 12.7851C9.87115 12.8607 9.97371 12.9032 10.0807 12.9032C10.1876 12.9032 10.2902 12.8607 10.3658 12.7851C10.4414 12.7095 10.4839 12.6069 10.4839 12.5V8.06448C10.4839 7.95754 10.4414 7.85498 10.3658 7.77936C10.2902 7.70374 10.1876 7.66125 10.0807 7.66125Z" fill="black"/>
<path id="Vector_5" d="M18.5484 10.8871C18.4414 10.8871 18.3389 10.9296 18.2632 11.0052C18.1876 11.0808 18.1451 11.1834 18.1451 11.2903V12.5C18.1451 12.6069 18.1876 12.7095 18.2632 12.7851C18.3389 12.8607 18.4414 12.9032 18.5484 12.9032C18.6553 12.9032 18.7579 12.8607 18.8335 12.7851C18.9091 12.7095 18.9516 12.6069 18.9516 12.5V11.2903C18.9516 11.1834 18.9091 11.0808 18.8335 11.0052C18.7579 10.9296 18.6553 10.8871 18.5484 10.8871Z" fill="black"/>
<path id="Vector_6" d="M2.01614 2.41937H5.24195C5.34889 2.41937 5.45145 2.37688 5.52707 2.30126C5.60269 2.22564 5.64517 2.12308 5.64517 2.01614C5.64517 1.9092 5.60269 1.80664 5.52707 1.73102C5.45145 1.6554 5.34889 1.61292 5.24195 1.61292H2.01614C1.9092 1.61292 1.80664 1.6554 1.73102 1.73102C1.6554 1.80664 1.61292 1.9092 1.61292 2.01614C1.61292 2.12308 1.6554 2.22564 1.73102 2.30126C1.80664 2.37688 1.9092 2.41937 2.01614 2.41937Z" fill="black"/>
<path id="Vector_7" d="M2.01614 3.62908H2.82259C2.92953 3.62908 3.0321 3.5866 3.10772 3.51098C3.18334 3.43536 3.22582 3.3328 3.22582 3.22586C3.22582 3.11892 3.18334 3.01635 3.10772 2.94073C3.0321 2.86511 2.92953 2.82263 2.82259 2.82263H2.01614C1.9092 2.82263 1.80664 2.86511 1.73102 2.94073C1.6554 3.01635 1.61292 3.11892 1.61292 3.22586C1.61292 3.3328 1.6554 3.43536 1.73102 3.51098C1.80664 3.5866 1.9092 3.62908 2.01614 3.62908Z" fill="black"/>
<path id="Vector_8" d="M21.3709 12.9033H22.9838C23.0908 12.9033 23.1933 12.8608 23.269 12.7852C23.3446 12.7095 23.3871 12.607 23.3871 12.5C23.3871 12.3931 23.3446 12.2905 23.269 12.2149C23.1933 12.1393 23.0908 12.0968 22.9838 12.0968H21.3709C21.264 12.0968 21.1614 12.1393 21.0858 12.2149C21.0102 12.2905 20.9677 12.3931 20.9677 12.5C20.9677 12.607 21.0102 12.7095 21.0858 12.7852C21.1614 12.8608 21.264 12.9033 21.3709 12.9033Z" fill="black"/>
<path id="Vector_9" d="M22.5807 11.6935H22.9839C23.0908 11.6935 23.1934 11.6511 23.269 11.5754C23.3446 11.4998 23.3871 11.3973 23.3871 11.2903C23.3871 11.1834 23.3446 11.0808 23.269 11.0052C23.1934 10.9296 23.0908 10.8871 22.9839 10.8871H22.5807C22.4737 10.8871 22.3712 10.9296 22.2955 11.0052C22.2199 11.0808 22.1774 11.1834 22.1774 11.2903C22.1774 11.3973 22.2199 11.4998 22.2955 11.5754C22.3712 11.6511 22.4737 11.6935 22.5807 11.6935Z" fill="black"/>
</g>
</g>
</svg>

<svg width="25" height="21" fill="none" xmlns="http://www.w3.org/2000/svg"><g id="Design"><g id="Group" fill="#000"><path id="Vector" d="M23.387 0H1.613A1.615 1.615 0 000 1.613v13.71a1.615 1.615 0 001.613 1.613h8.311l-.537 1.612H8.065a.403.403 0 00-.404.404v.806H4.032a.403.403 0 100 .806h17.742a.403.403 0 000-.806H17.34v-.806a.403.403 0 00-.403-.404h-1.323l-.537-1.612h8.311A1.616 1.616 0 0025 15.323V1.613A1.615 1.615 0 0023.387 0zm-6.855 19.355v.403H8.468v-.403h8.064zm-6.295-.807l.538-1.612h3.45l.538 1.612h-4.526zm13.957-3.225a.807.807 0 01-.807.806H1.613a.807.807 0 01-.807-.806v-.807h23.387v.807zM6.837 10.08l-.152 3.629h-.47l-.15-3.63h.772zm-.717-.807l.27-1.613h.122l.27 1.613H6.12zm.33-2.42c-.436 0-.806-.553-.806-1.209 0-.414.423-1.015.806-1.439.345.383.807.996.807 1.44 0 .655-.37 1.209-.806 1.209zm4.389-.806l.047.096v.308H9.274v-.308l.048-.096h1.518zm-1.115-.806l.356-.711.356.71h-.712zm1.162 2.016v6.401c0 .017.001.034.004.05H9.27a.417.417 0 00.003-.05v-6.4h1.613zm3.63-1.613h1.209v.807h-.403a.403.403 0 100 .806h.403v.807h-1.21a.403.403 0 000 .806h1.21v.806h-.403a.403.403 0 100 .807h.403v.806h-1.21a.403.403 0 000 .807h1.21v1.613h-2.823V4.032h2.823v.807h-1.21a.403.403 0 000 .806zm4.838 4.839v3.175c0 .017.001.034.003.05h-1.62a.405.405 0 00.004-.05v-3.175h1.613zm-1.613-.807V9.37l.806-1.612.807 1.612v.308h-1.613zm6.451 4.033h-4.035a.425.425 0 00.003-.05V9.273a.41.41 0 00-.042-.18l-1.21-2.42a.404.404 0 00-.721 0l-1.21 2.42a.406.406 0 00-.043.18v4.385c0 .017.002.034.004.05h-.407V3.63a.403.403 0 00-.403-.403H12.5a.403.403 0 00-.403.403v10.08h-.407a.405.405 0 00.004-.05V6.05a.406.406 0 00-.043-.181l-1.21-2.42a.403.403 0 00-.721 0l-1.21 2.42a.407.407 0 00-.042.18v7.611a.42.42 0 00.003.05h-.978l.168-4.015v-.04a.407.407 0 00-.005-.042V9.61l-.373-2.239c.468-.353.782-.995.782-1.727 0-1.036-1.202-2.184-1.339-2.311a.404.404 0 00-.55 0C6.04 3.46 4.84 4.609 4.84 5.645c0 .732.313 1.374.781 1.727l-.373 2.239a.404.404 0 00-.005.043v.04l.168 4.016H.806V1.613a.807.807 0 01.807-.807h21.774a.807.807 0 01.806.807V13.71z"/><path id="Vector_2" d="M4.436 14.92h-2.42a.403.403 0 000 .806h2.42a.403.403 0 000-.807z"/><path id="Vector_3" d="M6.048 14.92h-.403a.403.403 0 000 .806h.403a.403.403 0 000-.807z"/><path id="Vector_4" d="M10.08 7.661a.403.403 0 00-.403.403V12.5a.403.403 0 00.807 0V8.064a.403.403 0 00-.403-.403z"/><path id="Vector_5" d="M18.548 10.887a.404.404 0 00-.403.403v1.21a.403.403 0 00.807 0v-1.21a.403.403 0 00-.404-.403z"/><path id="Vector_6" d="M2.016 2.42h3.226a.403.403 0 000-.807H2.016a.403.403 0 100 .806z"/><path id="Vector_7" d="M2.016 3.63h.807a.403.403 0 100-.807h-.807a.403.403 0 100 .806z"/><path id="Vector_8" d="M21.37 12.903h1.614a.404.404 0 000-.806H21.37a.403.403 0 000 .806z"/><path id="Vector_9" d="M22.58 11.694h.404a.403.403 0 100-.807h-.403a.404.404 0 000 .806z"/></g></g></svg>
